X:1
T:Title
%%score { 1 | ( 2 3 ) }
L:1/8
M:6/4
K:F
V:1 treble nm="Grand Piano"
V:2 bass 
V:3 bass 
V:1
 z6 z4[Q:1/4=108] C2 | F4 F2 [EG]4 [EG]>[EG] |[M:7/4] [CA]2 G2 F2 [Ec]6 [Ec]>[Ec] | %3
[M:6/4] c4 A>G F4 [DG]2 |[M:5/4] [^CA]2- [CA]2- [CA]6 |[M:1/4] [^CA]2 |[M:6/4] A4 A>A c4 A>A | %7
[M:7/4] [DG]4 [DA]2 [DB]6 [DA][G,DG] |[M:6/4] [A,CF]2 [G,CE]2 [A,CF]2 [CFA]4 [B,EG]2 | %9
[M:5/4] [A,CF]2- [A,CF]2- [A,CF]6 |[M:1/4] [A,CF]2 |[M:6/4] .[CEG]4 [CEB]2 .[CEB]4 [CEG]2 | %12
 A4 d2 c4 cc | [Ec]2 [EG]2 [EA]2 .[EB]4 [CEG]2 |[M:5/4] A2- A2- A6 |[M:1/4] C2 | %16
[M:6/4] F4 F>F [EG]4 [EG]>[EG] | [FA]4 [CF]2 [B,D]4 [DG]>G | F2 E2 [A,CF]2 [CFA]4 [B,EG]2 | %19
[M:5/4] [A,CF]2- [A,CF]2- [A,CF]6 |] %20
V:2
 z6 z4 [F,A,]2 | [F,A,C]4 [F,A,C]2 [C,C]4 [C,C]>[C,C] | %2
[M:7/4] z2 B,2 [F,A,C]2 [C,G,]6 [C,G,]>[C,G,] |[M:6/4] [F,A,F]4 [F,CF]>[F,B,F] [D,A,]4 [B,,B,]2 | %4
[M:5/4] [A,,A,]2- [A,,A,]2- [A,,A,]6 |[M:1/4] [A,,A,]2 | %6
[M:6/4] [F,A,C]4 C>C [F,A,F]4 [F,CF]>[F,CF] |[M:7/4] [B,,B,]4 [A,,^F,]2 [G,,G,]6 [A,,F,]B,, | %8
[M:6/4] C,2 C,2 C,2 C,4 C,2 |[M:5/4] F,2- F,2- F,6 |[M:1/4] F,2 |[M:6/4] z2 A2 C,2 z2 A2 C,2 | %12
 [F,CF]4 [F,B,F]2 [F,A,F]4 FF | [C,G,]2 [C,C]2 [C,C]2 z2 A2 C,2 | %14
[M:5/4] [F,CF]2- [F,CF]2- [F,CF]6 |[M:1/4] [F,A,]2 | %16
[M:6/4] [F,A,C]4 [F,A,C]>[F,A,C] [C,C]4 [C,C]>[C,C] | [F,C]4 [A,,A,]2 [B,,F,]4 z z/ D/ | %18
 .[C,C]6 z6 |[M:5/4] F,2- F,2- F,6 |] %20
V:3
 x12 | x12 |[M:7/4] F,4 z2 z2 z2 z4 |[M:6/4] x12 |[M:5/4] x10 |[M:1/4] x2 |[M:6/4] z4 [F,A,]2 z6 | %7
[M:7/4] x14 |[M:6/4] x12 |[M:5/4] x10 |[M:1/4] x2 |[M:6/4] .C,6 .C,6 | z6 z4 [F,A,]2 | z6 .[C,C]6 | %14
[M:5/4] x10 |[M:1/4] x2 |[M:6/4] x12 | z6 z4 [B,,B,]2 | A,2 G,2 C,2 C,4 C,2 |[M:5/4] x10 |] %20

